svg/Filled/pencil_filled.svg

<svg viewBox="0 0 24 24" xmlns="http://www.w3.org/2000/svg" width="24" height="24"><path fill-rule="evenodd" d="M16.21 2.76q.3-.03.58 0c.53.06.95.3 1.33.6q.53.43 1.2 1.11l.71.72q.3.3.51.57c.31.38.57.8.63 1.34q.03.3 0 .6a2.6 2.6 0 0 1-.63 1.34q-.43.54-1.15 1.22L9.07 20.44l-.08.08a4 4 0 0 1-1.32.95c-.42.15-.87.15-1.37.15h-.21q-.95.01-1.62-.05a2.6 2.6 0 0 1-1.36-.5 3 3 0 0 1-.46-.46 2.6 2.6 0 0 1-.5-1.35q-.06-.68-.05-1.62v-.15c0-.49 0-.93.15-1.35l.12-.3c.2-.4.51-.7.86-1.05l.07-.07L13.7 4.47q.67-.68 1.2-1.1c.37-.3.8-.55 1.32-.6m.2 1.8c-.06 0-.17.03-.42.22-.26.2-.58.52-1.07 1.01l-.5.5 3.21 3.18.46-.46c.51-.5.84-.83 1.05-1.1.2-.24.23-.36.24-.42v-.18c0-.06-.04-.17-.24-.43-.21-.26-.54-.59-1.05-1.09-.5-.49-.81-.8-1.08-1-.24-.2-.36-.23-.42-.24z" clip-rule="evenodd"/></svg>

<svg viewBox="0 0 24 24" xmlns="http://www.w3.org/2000/svg" width="24" height="24"><path fill-rule="evenodd" d="M16.21 2.76Q16.51 2.73 16.79 2.76C17.32 2.82 17.74 3.06 18.12 3.36Q18.65 3.79 19.32 4.47L20.03 5.19Q20.33 5.49 20.54 5.76C20.85 6.14 21.11 6.56 21.17 7.1Q21.2 7.4 21.17 7.7A2.6 2.6 0 0 1 20.54 9.04Q20.11 9.58 19.39 10.26L8.99 20.52A4 4 0 0 1 7.67 21.47C7.25 21.62 6.8 21.62 6.3 21.62L6.09 21.62Q5.14 21.63 4.47 21.57A2.6 2.6 0 0 1 3.11 21.07A3 3 0 0 1 2.65 20.61A2.6 2.6 0 0 1 2.15 19.26Q2.09 18.58 2.1 17.64L2.1 17.49C2.1 17 2.1 16.56 2.25 16.14L2.37 15.84C2.57 15.44 2.88 15.14 3.23 14.79L13.7 4.47Q14.37 3.79 14.9 3.37C15.27 3.07 15.7 2.82 16.22 2.77M16.42 4.57c-.06 0-.17.03-.42.22-.26.2-.58.52-1.07 1.01l-.5.5 3.21 3.18.46-.46c.51-.5.84-.83 1.05-1.1.2-.24.23-.36.24-.42v-.18c0-.06-.04-.17-.24-.43-.21-.26-.54-.59-1.05-1.09-.5-.49-.81-.8-1.08-1-.24-.2-.36-.23-.42-.24z" clip-rule="evenodd"/></svg>
